X:1
T: The Colvins of Heatherdene
C:
R:Jig
Q:180
K:D
M:6/8
L:1/16
|:A2|a2f2d2 c2d2A2|B2G2G2 G4F2|E2F2G2 ^G2A2^A2|B2F2F2 F4A2|
a2f2d2 c2d2A2|B2G2G2 G4F2|E2F2G2 A2B2c2|d6 d4:|
|:A2|A,2D2F2 A2d2A2|c2B2B2 B6|A,2C2E2 A2c2A2|B2F2F2 F6|
A,2D2F2 A2d2A2|c2B2B2 B6|E2F2G2 A2B2c2|d6 d4:|
|:z2|B2^A2B2 d2B2G2|A2B2A2 E6|D2E2F2 G2A2_B2|e2B2e2 d6|
g2f2e2 d2B2G2|A2B2A2 E6|F4d2 c2B2A2|G6 G4:|
